assets/fonts/svg-files-for-custom-font/globe.svg

<svg enable-background="new 0 0 20 20" viewBox="0 0 20 20" xmlns="http://www.w3.org/2000/svg"><path d="m10 .4c-5.295 0-9.601 4.307-9.601 9.6s4.306 9.6 9.601 9.6c5.293 0 9.6-4.307 9.6-9.6s-4.307-9.6-9.6-9.6zm8.188 9.6c0 1.873-.636 3.6-1.696 4.98-.3-.234-.619-.867-.319-1.523.303-.66.382-2.188.312-2.783-.066-.594-.375-2.025-1.214-2.039-.838-.012-1.413-.289-1.911-1.283-1.033-2.068 1.939-2.465.906-3.609-.289-.322-1.783 1.322-2.002-.869-.014-.157.135-.392.336-.636 3.244 1.09 5.588 4.157 5.588 7.762zm-9.313-8.107c-.196.382-.713.537-1.027.824-.684.619-.978.533-1.346 1.127-.371.594-1.567 1.449-1.567 1.879s.604.936.906.838c.302-.1 1.099-.094 1.567.07.469.166 3.914.332 2.816 3.244-.348.926-1.873.77-2.279 2.303-.061.225-.272 1.186-.285 1.5-.025.486.344 2.318-.125 2.318-.471 0-1.738-1.639-1.738-1.936s-.328-1.338-.328-2.23c0-.891-1.518-.877-1.518-2.062 0-1.068.823-1.6.638-2.113-.181-.51-1.627-.527-2.23-.59 1.053-2.731 3.53-4.758 6.516-5.172zm-1.451 15.877c.492-.26.542-.596.988-.613.51-.023.925-.199 1.5-.326.51-.111 1.423-.629 2.226-.695.678-.055 2.015.035 2.375.689-1.295.861-2.848 1.363-4.514 1.363-.899 0-1.765-.149-2.575-.418z"/></svg>

<?xml version="1.0" encoding="utf-8"?>
<!-- Generator: Adobe Illustrator 18.1.0, SVG Export Plug-In . SVG Version: 6.00 Build 0)  -->
<!DOCTYPE svg PUBLIC "-//W3C//DTD SVG 1.1//EN" "http://www.w3.org/Graphics/SVG/1.1/DTD/svg11.dtd">
<svg version="1.1" id="Globe" xmlns="http://www.w3.org/2000/svg" xmlns:xlink="http://www.w3.org/1999/xlink" x="0px" y="0px"
	 viewBox="0 0 20 20" enable-background="new 0 0 20 20" xml:space="preserve">
<path d="M10,0.4c-5.295,0-9.601,4.307-9.601,9.6c0,5.293,4.306,9.6,9.601,9.6c5.293,0,9.6-4.307,9.6-9.6
	C19.6,4.707,15.293,0.4,10,0.4z M18.188,10c0,1.873-0.636,3.6-1.696,4.98c-0.3-0.234-0.619-0.867-0.319-1.523
	c0.303-0.66,0.382-2.188,0.312-2.783c-0.066-0.594-0.375-2.025-1.214-2.039c-0.838-0.012-1.413-0.289-1.911-1.283
	c-1.033-2.068,1.939-2.465,0.906-3.609c-0.289-0.322-1.783,1.322-2.002-0.869C12.25,2.717,12.399,2.482,12.6,2.238
	C15.844,3.328,18.188,6.395,18.188,10z M8.875,1.893C8.679,2.275,8.162,2.43,7.848,2.717C7.164,3.336,6.87,3.25,6.502,3.844
	C6.131,4.438,4.935,5.293,4.935,5.723s0.604,0.936,0.906,0.838c0.302-0.1,1.099-0.094,1.567,0.07
	c0.469,0.166,3.914,0.332,2.816,3.244c-0.348,0.926-1.873,0.77-2.279,2.303c-0.061,0.225-0.272,1.186-0.285,1.5
	c-0.025,0.486,0.344,2.318-0.125,2.318c-0.471,0-1.738-1.639-1.738-1.936c0-0.297-0.328-1.338-0.328-2.23
	c0-0.891-1.518-0.877-1.518-2.062c0-1.068,0.823-1.6,0.638-2.113c-0.181-0.51-1.627-0.527-2.23-0.59
	C3.412,4.334,5.889,2.307,8.875,1.893z M7.424,17.77c0.492-0.26,0.542-0.596,0.988-0.613c0.51-0.023,0.925-0.199,1.5-0.326
	c0.51-0.111,1.423-0.629,2.226-0.695c0.678-0.055,2.015,0.035,2.375,0.689c-1.295,0.861-2.848,1.363-4.514,1.363
	C9.1,18.188,8.234,18.039,7.424,17.77z"/>
</svg>
